public/images/nickname.svg

<?xml version="1.0" encoding="utf-8"?>
<!-- Generator: Adobe Illustrator 26.0.1, SVG Export Plug-In . SVG Version: 6.00 Build 0)  -->
<svg version="1.1" id="Layer_1" xmlns="http://www.w3.org/2000/svg" xmlns:xlink="http://www.w3.org/1999/xlink" x="0px" y="0px"
	 viewBox="0 0 448 512" style="enable-background:new 0 0 448 512;" xml:space="preserve">
<style type="text/css">
	.st0{fill:#160919;}
</style>
<path class="st0" d="M224,16c-6.7,0-10.8-2.8-15.5-6.1C201.9,5.4,194,0,176,0c-30.5,0-52,43.7-66,89.4c-47.3,8.7-78,22.8-78,38.6
	c0,14.3,25,27.1,64.6,35.9c-0.4,4-0.6,8-0.6,12.1c0,17,3.3,33.2,9.3,48H45.4C38,224,32,230,32,237.4c0,1.7,0.3,3.4,1,5l38.8,96.9
	C28.2,371.8,0,423.8,0,482.3C0,498.7,13.3,512,29.7,512h388.6c16.4,0,29.7-13.3,29.7-29.7c0-58.5-28.2-110.4-71.7-143l38.7-96.9
	c0.6-1.6,1-3.3,1-5c0-7.4-6-13.4-13.4-13.4h-59.9c6-14.8,9.3-31,9.3-48c0-4.1-0.2-8.1-0.6-12.1C391,155.1,416,142.3,416,128
	c0-15.8-30.7-29.9-78-38.6C324,43.7,302.5,0,272,0c-18,0-25.9,5.4-32.5,9.9C234.7,13.2,230.7,16,224,16z M280,224h-12.4
	c-16.5,0-31.1-10.6-36.3-26.2c-2.3-7-12.2-7-14.5,0c-5.2,15.6-19.9,26.2-36.3,26.2H168c-22.1,0-40-17.9-40-40v-14.4
	c28.2,4.1,61,6.4,96,6.4s67.8-2.3,96-6.4V184C320,206.1,302.1,224,280,224z M192,320l16,32l-32,128l-48-192L192,320z M320,288
	l-48,192l-32-128l16-32L320,288z"/>
</svg>

<svg xmlns="http://www.w3.org/2000/svg" viewBox="0 0 448 512"><!--! Font Awesome Pro 6.4.2 by @fontawesome - https://fontawesome.com License - https://fontawesome.com/license (Commercial License) Copyright 2023 Fonticons, Inc. --><path d="M224 16c-6.7 0-10.8-2.8-15.5-6.1C201.9 5.4 194 0 176 0c-30.5 0-52 43.7-66 89.4C62.7 98.1 32 112.2 32 128c0 14.3 25 27.1 64.6 35.9c-.4 4-.6 8-.6 12.1c0 17 3.3 33.2 9.3 48H45.4C38 224 32 230 32 237.4c0 1.7 .3 3.4 1 5l38.8 96.9C28.2 371.8 0 423.8 0 482.3C0 498.7 13.3 512 29.7 512H418.3c16.4 0 29.7-13.3 29.7-29.7c0-58.5-28.2-110.4-71.7-143L415 242.4c.6-1.6 1-3.3 1-5c0-7.4-6-13.4-13.4-13.4H342.7c6-14.8 9.3-31 9.3-48c0-4.1-.2-8.1-.6-12.1C391 155.1 416 142.3 416 128c0-15.8-30.7-29.9-78-38.6C324 43.7 302.5 0 272 0c-18 0-25.9 5.4-32.5 9.9c-4.8 3.3-8.8 6.1-15.5 6.1zm56 208H267.6c-16.5 0-31.1-10.6-36.3-26.2c-2.3-7-12.2-7-14.5 0c-5.2 15.6-19.9 26.2-36.3 26.2H168c-22.1 0-40-17.9-40-40V169.6c28.2 4.1 61 6.4 96 6.4s67.8-2.3 96-6.4V184c0 22.1-17.9 40-40 40zm-88 96l16 32L176 480 128 288l64 32zm128-32L272 480 240 352l16-32 64-32z"/></svg>
